src/assets/check.svg

<?xml version="1.0" encoding="utf-8"?>
<svg width="800px" height="800px" viewBox="0 0 24 24" fill="none" xmlns="http://www.w3.org/2000/svg">
<rect width="24" height="24" fill="none"/>
<path fill-rule="evenodd" clip-rule="evenodd" d="M7.25007 2.38782C8.54878 2.0992 10.1243 2 12 2C13.8757 2 15.4512 2.0992 16.7499 2.38782C18.06 2.67897 19.1488 3.176 19.9864 4.01358C20.824 4.85116 21.321 5.94002 21.6122 7.25007C21.9008 8.54878 22 10.1243 22 12C22 13.8757 21.9008 15.4512 21.6122 16.7499C21.321 18.06 20.824 19.1488 19.9864 19.9864C19.1488 20.824 18.06 21.321 16.7499 21.6122C15.4512 21.9008 13.8757 22 12 22C10.1243 22 8.54878 21.9008 7.25007 21.6122C5.94002 21.321 4.85116 20.824 4.01358 19.9864C3.176 19.1488 2.67897 18.06 2.38782 16.7499C2.0992 15.4512 2 13.8757 2 12C2 10.1243 2.0992 8.54878 2.38782 7.25007C2.67897 5.94002 3.176 4.85116 4.01358 4.01358C4.85116 3.176 5.94002 2.67897 7.25007 2.38782ZM15.7071 9.29289C16.0976 9.68342 16.0976 10.3166 15.7071 10.7071L12.0243 14.3899C11.4586 14.9556 10.5414 14.9556 9.97568 14.3899L11 13.3656L9.97568 14.3899L8.29289 12.7071C7.90237 12.3166 7.90237 11.6834 8.29289 11.2929C8.68342 10.9024 9.31658 10.9024 9.70711 11.2929L11 12.5858L14.2929 9.29289C14.6834 8.90237 15.3166 8.90237 15.7071 9.29289Z" fill="currentColor"/>
</svg>

<svg xmlns="http://www.w3.org/2000/svg" width="800" height="800" fill="none" viewBox="0 0 24 24"><path d="M0 0h24v24H0z"/><path fill="currentColor" fill-rule="evenodd" d="M7.25 2.388C8.55 2.099 10.124 2 12 2s3.451.1 4.75.388c1.31.291 2.399.788 3.236 1.626.838.837 1.335 1.926 1.626 3.236C21.901 8.55 22 10.124 22 12s-.1 3.451-.388 4.75c-.291 1.31-.788 2.399-1.626 3.236-.837.838-1.926 1.335-3.236 1.626-1.299.289-2.874.388-4.75.388s-3.451-.1-4.75-.388c-1.31-.291-2.399-.788-3.236-1.626-.838-.837-1.335-1.926-1.626-3.236C2.099 15.45 2 13.876 2 12s.1-3.451.388-4.75c.291-1.31.788-2.399 1.626-3.236.837-.838 1.926-1.335 3.236-1.626Zm8.457 6.905a1 1 0 0 1 0 1.414l-3.683 3.683a1.449 1.449 0 0 1-2.048 0L11 13.366 9.976 14.39l-1.683-1.683a1 1 0 1 1 1.414-1.414L11 12.586l3.293-3.293a1 1 0 0 1 1.414 0Z" clip-rule="evenodd"/></svg>
